assets/icons/uE027-storagebox.svg

<svg xmlns="http://www.w3.org/2000/svg" width="896" height="1232" viewBox="0 0 896 1232"><path d="M895 352q0 2 .5 6t.5 6v140q0 33-28 49v343q0 23-16.5 39.5T812 952H84q-23 0-39.5-16.5T28 896V553Q0 537 0 504V364q0-8 1-12l55-247q3-21 19-35t37-14h672q20 0 35.5 13.5T839 103zM112 113L56 364h784l-56-251v-1H112v1zm700 783V532H616v84H280v-84H84v364h728zm28-392V392H56v112h784z"/></svg>

<?xml version="1.0" encoding="UTF-8" standalone="no"?><svg   xmlns:svg="http://www.w3.org/2000/svg"   xmlns="http://www.w3.org/2000/svg"   version="1.1"   width="896"   height="1232"   viewBox="0 0 896 1232">  <path     d="M895 352Q895 354 895.5 358T896 364V504Q896 537 868 553V896Q868 919 851.5 935.5T812 952H84Q61 952 44.5 935.5T28 896V553Q0 537 0 504V364Q0 356 1 352L56 105Q59 84 75 70T112 56H784Q804 56 819.5 69.5T839 103zM112 113L56 364H840L784 113V112H112V113zM812 896V532H616V616H280V532H84V896H812zM840 504V392H56V504H840z"     id="icon169" /></svg>
